X:785
T:Tiree Bridal Song
C:Joe Buchanan's Scottish Tome - Page 536.1
I:536 1
Z:Carl Allison
R:Slow Air
L:1/4
M:3/4
K:D
D | (F2 G) | (A2 A) | (G F E) | (D2 D) | (F2 G) | A (B c) | d3 | A2 =c |
(B d2) | (A2 G) | F2 (E/>D/) | (G2 B) | (A A2) | (=C2 E) | D3- | D2 |
F (F G) | A3 | (G F E) | D3 | F (F G) | A (B c) | d3 | A2 =c |
(B d2) | (A2 G) | F2 (E/>D/) | (G2 B) | (A2 A) | (=C2 E) | D3- | D2 :|

